Newaita/actions/32/im-ban-user.svg

<svg height="32" viewBox="0 0 32 32" width="32" xmlns="http://www.w3.org/2000/svg"><path d="m15.875 2.894531c-3.664062 0-6.613281 2.953125-6.613281 6.617188 0 3.664062 2.949219 6.613281 6.613281 6.613281 3.667969 0 6.617188-2.949219 6.617188-6.613281 0-3.664063-2.949219-6.617188-6.617188-6.617188zm0 2.648438c2.199219 0 3.96875 1.769531 3.96875 3.96875s-1.769531 3.96875-3.96875 3.96875-3.96875-1.769531-3.96875-3.96875 1.769531-3.96875 3.96875-3.96875zm0 0" fill="#424242"/><path d="m11.238281 16.792969c-.132812.003906-.265625.023437-.390625.0625-.882812.28125-2.480468.621093-3.945312 1.40625-1.46875.789062-2.925782 2.300781-2.925782 4.480469v1.984374h-.007812v1.984376c0 1.464843 1.179688 2.644531 2.644531 2.644531h11.910157v-2.644531h-10.585938c-.730469 0-1.324219-.589844-1.324219-1.324219v-.660157h-.003906v-1.984374c0-1.128907.523437-1.617188 1.539063-2.160157.890624-.476562 2.046874-.78125 3.066406-1.085937 3.195312 1.175781 6.128906 1.175781 9.328125 0 .054687.015625.109375.03125.164062.046875l3.15625-1.753907c-1.15625-.472656-2.273437-.722656-2.96875-.9375-.125-.039062-.257812-.058593-.390625-.058593-.164062 0-.332031.035156-.484375.09375-3.085937 1.234375-5.203125 1.234375-8.285156 0-.160156-.0625-.328125-.09375-.496094-.09375zm0 0" fill="#424242"/><g fill="#f44336"><path d="m28.855469 28.214844-.933594.933594c-.257813.257812-.679687.257812-.9375 0l-6.546875-6.546876c-.257812-.261718-.257812-.679687 0-.9375l.933594-.933593c.257812-.261719.679687-.261719.9375 0l6.546875 6.546875c.257812.257812.257812.675781 0 .9375zm0 0"/><path d="m21.371094 29.148438-.933594-.933594c-.257812-.261719-.257812-.679688 0-.9375l6.546875-6.546875c.257813-.261719.679687-.261719.9375 0l.933594.933593c.257812.257813.257812.675782 0 .9375l-6.546875 6.546876c-.257813.257812-.679688.257812-.9375 0zm0 0"/></g></svg>

<?xml version="1.0" encoding="UTF-8"?>
<svg xmlns="http://www.w3.org/2000/svg" xmlns:xlink="http://www.w3.org/1999/xlink" width="32px" height="32px" viewBox="0 0 32 32" version="1.1">
<g id="surface1">
<path style=" stroke:none;fill-rule:nonzero;fill:rgb(25.882354%,25.882354%,25.882354%);fill-opacity:1;" d="M 15.875 2.894531 C 12.210938 2.894531 9.261719 5.847656 9.261719 9.511719 C 9.261719 13.175781 12.210938 16.125 15.875 16.125 C 19.542969 16.125 22.492188 13.175781 22.492188 9.511719 C 22.492188 5.847656 19.542969 2.894531 15.875 2.894531 Z M 15.875 5.542969 C 18.074219 5.542969 19.84375 7.3125 19.84375 9.511719 C 19.84375 11.710938 18.074219 13.480469 15.875 13.480469 C 13.675781 13.480469 11.90625 11.710938 11.90625 9.511719 C 11.90625 7.3125 13.675781 5.542969 15.875 5.542969 Z M 15.875 5.542969 "/>
<path style=" stroke:none;fill-rule:nonzero;fill:rgb(25.882354%,25.882354%,25.882354%);fill-opacity:1;" d="M 11.238281 16.792969 C 11.105469 16.796875 10.972656 16.816406 10.847656 16.855469 C 9.964844 17.136719 8.367188 17.476562 6.902344 18.261719 C 5.433594 19.050781 3.976562 20.5625 3.976562 22.742188 L 3.976562 24.726562 L 3.96875 24.726562 L 3.96875 26.710938 C 3.96875 28.175781 5.148438 29.355469 6.613281 29.355469 L 18.523438 29.355469 L 18.523438 26.710938 L 7.9375 26.710938 C 7.207031 26.710938 6.613281 26.121094 6.613281 25.386719 L 6.613281 24.726562 L 6.609375 24.726562 L 6.609375 22.742188 C 6.609375 21.613281 7.132812 21.125 8.148438 20.582031 C 9.039062 20.105469 10.195312 19.800781 11.214844 19.496094 C 14.410156 20.671875 17.34375 20.671875 20.542969 19.496094 C 20.597656 19.511719 20.652344 19.527344 20.707031 19.542969 L 23.863281 17.789062 C 22.707031 17.316406 21.589844 17.066406 20.894531 16.851562 C 20.769531 16.8125 20.636719 16.792969 20.503906 16.792969 C 20.339844 16.792969 20.171875 16.828125 20.019531 16.886719 C 16.933594 18.121094 14.816406 18.121094 11.734375 16.886719 C 11.574219 16.824219 11.40625 16.792969 11.238281 16.792969 Z M 11.238281 16.792969 "/>
<path style=" stroke:none;fill-rule:nonzero;fill:rgb(95.686275%,26.274511%,21.176471%);fill-opacity:1;" d="M 28.855469 28.214844 L 27.921875 29.148438 C 27.664062 29.40625 27.242188 29.40625 26.984375 29.148438 L 20.4375 22.601562 C 20.179688 22.339844 20.179688 21.921875 20.4375 21.664062 L 21.371094 20.730469 C 21.628906 20.46875 22.050781 20.46875 22.308594 20.730469 L 28.855469 27.277344 C 29.113281 27.535156 29.113281 27.953125 28.855469 28.214844 Z M 28.855469 28.214844 "/>
<path style=" stroke:none;fill-rule:nonzero;fill:rgb(95.686275%,26.274511%,21.176471%);fill-opacity:1;" d="M 21.371094 29.148438 L 20.4375 28.214844 C 20.179688 27.953125 20.179688 27.535156 20.4375 27.277344 L 26.984375 20.730469 C 27.242188 20.46875 27.664062 20.46875 27.921875 20.730469 L 28.855469 21.664062 C 29.113281 21.921875 29.113281 22.339844 28.855469 22.601562 L 22.308594 29.148438 C 22.050781 29.40625 21.628906 29.40625 21.371094 29.148438 Z M 21.371094 29.148438 "/>
</g>
</svg>
